svg/u1f332.svg

<svg viewBox="0 0 128 128" xmlns="http://www.w3.org/2000/svg">
  <path d="M56.39,103.2c0,0-0.28,5-1.06,8.02c-0.77,3.03-3.38,5.07-2.53,8.59c0.56,2.32,3.59,4.01,9.64,4.01 c6.05,0,10.16-1.62,10.28-4.72c0.14-3.59-2.04-4.86-2.39-8.8c-0.35-3.94-0.21-7.6-0.21-7.6L56.39,103.2z" fill="#855B51"/>
  <path d="M21.15,87.5c0,0-4.6,0.94-6.29,1.5s-3.19,0.94-3.57,2.53s-0.75,5.63,5.35,8.35 c6.1,2.72,15.86,1.78,15.86,1.78s-1.03,4.04,2.35,5.91c3.38,1.88,9.95,1.41,14.45-0.09c4.5-1.5,5.91-2.44,5.91-2.44 s2.25,3.94,9.95,3.85c7.7-0.09,9.85-2.91,9.85-2.91s7.98,4.6,14.73,3.19s4.69-7.79,4.69-7.79s8.45,1.69,15.49-1.22 c7.04-2.91,7.6-6.57,7.41-7.7c-0.19-1.13-1.64-3.24-3.99-3.05s-7.74-1.74-9.9-3.05c-2.16-1.31-6.95-3.66-7.79-4.04 c-0.84-0.38-2.49-1.6-2.21-2.63c0.28-1.03,0.7-1.31,2.58-1.13c1.88,0.19,7.13,0.19,9.57-1.69c2.44-1.88,3.94-4.5,3.66-6.01 c-0.28-1.5-3-2.72-3-2.72s-14.08-6.48-15.2-6.95c-1.13-0.47-3.84-1.88-3.75-3.1c0.09-1.31,8.82-0.38,9.67-5.73s-1.6-5.35-3.57-6.48 s-7.7-2.82-7.7-2.82s-4.69-3-5.54-3.57c-0.84-0.56-2.25-1.5-2.16-2.25c0.09-0.75,4.86,0.73,9.01-0.56c3-0.94,3.38-2.96,2.77-4.74 c-0.3-0.87-5.68-3.33-5.68-3.33L55.31,24.9c0,0-19.05,6.38-19.71,6.66c-0.66,0.28-1.03,1.5,0,2.82c1.03,1.31,2.72,3.28,6.38,3.19 c3.66-0.09,6.01-1.69,6.66-0.66c0.66,1.03-0.96,2.64-2.06,3.28c-3.28,1.92-6.1,3.57-6.1,3.57s-10.61,4.5-11.17,7.23 s0.56,4.07,2.25,5.26c1.41,0.99,4.08,1.36,5.82,1.31c1.22-0.03,1.99-0.37,2.3,0.75c0.42,1.55-2.21,2.91-4.65,3.75 c-2.44,0.84-7.23,3-7.23,3s-7.88,1.88-8.35,2.72c-0.47,0.84-1.31,4.97,1.97,7.88c3.28,2.91,9.29,3.66,9.29,3.66 s-0.75,2.35-2.25,3.66C26.97,84.31,24.43,86.19,21.15,87.5z" fill="#027F1C"/>
  <path d="M62.44,4.35c2.35,0,2.53,4.04,7.13,9.67c4.98,6.1,10.63,11.39,12.93,13.23 c2.51,2.02,6.03,3.45,6.19,3.87c0.16,0.42-3.64,1.85-8.99,2.14c-5.35,0.28-10.42-1.69-10.42-1.69s3.85,8.54,1.78,10.51 c-1.67,1.59-7.51,1.41-11.73-4.79s-4.32-8.17-4.32-8.17s-6.66,4.04-12.58,4.13s-6.85-1.2-6.85-1.69c0-0.49,6.66-3.47,9.29-5.44 S53.32,17.7,57,12.42C59.82,8.39,60.57,4.35,62.44,4.35z" fill="#02AB47"/>
  <path d="M57,39.08c0,0-2.44,2.53-6.29,2.82s-5.91-0.66-5.91-0.66s-4.74,1.92-9.01,4.41 c-3.34,1.95-6.41,4.46-6.34,4.88c0.07,0.42,0.99,1.97,7.18,1.97s6.76-1.58,9.85-1.5c3.94,0.09,6.19,7.02,12.95,7.13 c5.63,0.09,4.79-4.04,7.88-4.41c3.1-0.38,4.51,2.09,8.87,2.21c12.01,0.33,21.49-5.07,20.13-8.31c-0.45-1.08-3.55-2.59-8.07-4.18 c-4.27-1.5-5.87-2.39-5.87-2.39s-0.7,1.5-2.86,2.16c-2.02,0.61-5.54-0.75-5.54-0.75s0,2.91-3.28,3.47 c-4.41,0.75-8.35-1.22-10.14-2.82S57,39.08,57,39.08z" fill="#02AB47"/>
  <path d="M75.58,78.68c-3.07,1.21-6.29,8.92-12.86,7.23c-6.57-1.69-7.41-12.58-7.41-12.58 s-15.17,13.2-19.71,9.01c-3.71-3.43,3.1-8.78,3.1-8.78s-7.04,2.21-13.14-0.42s-6.22-4.72-6.1-5.35c0.12-0.63,4.47-2.15,8.07-3.38 c2.96-1.01,6.41-1.97,6.41-1.97s3.54,1.41,2.7,3.19c-0.84,1.78-4.22,3-2.91,4.32c1.31,1.31,4.88-1.13,6.1-1.97s4.69-2.62,6.95-2.72 c4.97-0.23,6.95,3.57,11.64,2.72s8.14-4.6,13.12-5.26c4.97-0.66,8.07,1.69,12.95,1.13c4.88-0.56,6.59-2.63,6.59-2.63 s4.97,1.88,9.2,3.66c4.22,1.78,7.79,4.32,7.79,4.32s-3,3-8.35,3.66c-5.35,0.66-8.17-2.06-9.2-2.63s-4.22-3.28-5.07-2.25 c-0.84,1.03,3.47,3.47,5.35,4.88s5.59,4.43,0.09,7.41c-2.77,1.5-6.29,1.08-8.17,0.66C77.55,79.78,77.66,77.87,75.58,78.68z" fill="#02AB47"/>
  <path d="M75.87,83.94c0,0-5.54,6.76-9.57,8.82s-7.79,2.11-7.79,2.11s-2.11,2.16-1.69,5.26 c0.3,2.22,2.91,4.36,8.63,3.99s7.13-1.69,7.32-3.38c0.19-1.69-0.99-3.28-1.36-4.04c-0.38-0.75-1.92-2.53-0.89-3.19 c1.03-0.66,2.06,0.38,3.38,2.35c1.31,1.97,7.41,12.48,15.39,9.1c7.89-3.34-1.78-10.89,0.19-12.11c1.97-1.22,6.95,3.1,14.64,2.63 c8.36-0.51,10.23-4.71,10.23-5.96c0-0.47-3.43-0.47-6.29-1.13c-2.17-0.5-5.3-2.44-5.3-2.44s-6.9,2.86-13.37,2.02 S75.87,83.94,75.87,83.94z" fill="#02AB47"/>
  <path d="M50.81,81.4c0,0,0.38,6.38,1.6,8.63c1.22,2.25,3.94,4.5,3.94,4.5s-0.61,2.96-3.66,5.26 c-3.99,3.01-11.17,5.16-15.39,4.04c-4.22-1.13-3.28-4.04-2.91-5.16c0.38-1.13,4.5-5.73,5.54-7.23c1.03-1.5,2.35-3.47,1.13-3.75 c-1.22-0.28-3.19,2.72-4.6,4.41c-1.41,1.69-5.26,5.35-12.48,4.32S11.2,91.3,11.86,90.46c0.66-0.84,5.73-2.58,8.54-3.43 c2.82-0.84,8.07-4.04,8.07-4.04s-0.47,2.72,1.97,3.66c3.06,1.18,7.32,0.84,12.76-1.31C47.32,83.71,50.81,81.4,50.81,81.4z" fill="#02AB47"/>
  <path d="M24.08,88.84c-1.73,1.49-4.22,2.11-3.17,3.66c1.06,1.55,3.1-0.21,4.79-1.55 c1.69-1.34,3.59-2.67,2.6-3.87C27.32,85.88,25.63,87.5,24.08,88.84z" fill="#028B2B"/>
  <path d="M43.44,95.04c1.84,1.45,3.1-2.6,3.73-4.15c0.63-1.55,2.08-3.81,0.84-4.58 c-1.69-1.06-2.39,1.06-3.38,3.52S42.1,93.98,43.44,95.04z" fill="#028B2B"/>
  <path d="M49.14,67.44c-1.01-0.76-1.76-0.07-3.17,1.97c-1.41,2.04-2.25,3.52-1.13,4.29 c1.13,0.77,3.03-1.97,3.73-3.03S49.99,68.08,49.14,67.44z" fill="#028B2B"/>
  <path d="M63.17,69.23c-1.81,0.42-0.86,2.22-0.49,3.94c0.42,1.97,1.06,5.07,1.34,5.91 c0.35,1.06,0.77,2.6,2.11,2.25c1.34-0.35,0.86-2.29,0.7-3.17c-0.35-2.04-1.13-5.21-1.34-6.19C65.28,70.99,65,68.8,63.17,69.23z" fill="#028B2B"/>
  <path d="M77.79,88.7c-1.12,1.06,0.28,2.53,1.9,4.36s2.67,3.8,4.01,2.96c1.34-0.84-0.14-2.67-1.48-4.15 C80.89,90.39,79.13,87.43,77.79,88.7z" fill="#028B2B"/>
  <path d="M75.84,67.35c-1.2,1.06,0.35,2.53,1.27,3.94s2.82,3.52,3.38,4.08c0.56,0.56,1.43,1.71,2.39,1.13 c1.22-0.74,0.07-2.25-0.42-2.82s-2.11-2.82-3.03-3.8S77.34,66.02,75.84,67.35z" fill="#028B2B"/>
  <path d="M76.1,45.62c-0.98,1.38,1.06,2.82,3.03,3.94c1.97,1.13,4.04,2.36,4.79,1.13 c0.84-1.41-1.2-2.53-2.89-3.52C79.34,46.18,77.16,44.14,76.1,45.62z" fill="#028B2B"/>
  <path d="M59.63,47.73c-2.11-0.14-1.83,1.69-1.76,3.66c0.07,1.97,0.42,3.1,1.76,3.1c1.34,0,1.34-2.04,1.34-3.1 C60.97,50.34,60.97,47.82,59.63,47.73z" fill="#028B2B"/>
  <path d="M48.6,47.94c0.94,1.52,3.1-0.63,4.01-1.41c0.92-0.77,2.25-1.9,1.34-3.03 c-0.92-1.13-2.82,0.49-3.73,1.34C49.31,45.69,47.69,46.47,48.6,47.94z" fill="#028B2B"/>
  <path d="M62.06,26.9c0.57,3.96,1.36,5.63,2.87,5.13c1.35-0.44,0.42-2.89,0.1-5.16 c-0.31-2.28-0.36-4.26-2.03-4.01C61.13,23.14,61.72,24.52,62.06,26.9z" fill="#028B2B"/>
  <path d="M70.05,25.5c1.26,1.93,2.55,3.01,3.87,2.17c1.01-0.64-0.39-2.49-1.24-3.61 c-0.58-0.76-2.24-3.93-3.79-2.57C67.84,22.41,68.74,23.49,70.05,25.5z" fill="#028B2B"/>
  <path d="M56.6,20.99c0.73,0.68,0,2.04-1.06,3.17c-1.06,1.13-2.53,3.17-3.66,2.11s0.84-2.82,1.55-3.66 C54.14,21.76,55.48,19.93,56.6,20.99z" fill="#028B2B"/>
</svg>

<svg viewBox="0 0 128 128" xmlns="http://www.w3.org/2000/svg">
  <defs/>
  <path d="M56.39,103.2 C56.39,103.2 56.11,108.2 55.33,111.22 C54.56,114.25 51.95,116.29 52.8,119.81 C53.36,122.13 56.39,123.82 62.44,123.82 C68.49,123.82 72.6,122.2 72.72,119.1 C72.86,115.51 70.68,114.24 70.33,110.3 C69.98,106.36 70.12,102.7 70.12,102.7 L56.39,103.2 Z" fill="#855B51"/>
  <path d="M21.15,87.5 C21.15,87.5 16.55,88.44 14.86,89 C13.17,89.56 11.67,89.94 11.29,91.53 C10.91,93.12 10.54,97.16 16.64,99.88 C22.74,102.6 32.5,101.66 32.5,101.66 C32.5,101.66 31.47,105.7 34.85,107.57 C38.23,109.45 44.8,108.98 49.3,107.48 C53.8,105.98 55.21,105.04 55.21,105.04 C55.21,105.04 57.46,108.98 65.16,108.89 C72.86,108.8 75.01,105.98 75.01,105.98 C75.01,105.98 82.99,110.58 89.74,109.17 C96.49,107.76 94.43,101.38 94.43,101.38 C94.43,101.38 102.88,103.07 109.92,100.16 C116.96,97.25 117.52,93.59 117.33,92.46 C117.14,91.33 115.69,89.22 113.34,89.41 C110.99,89.6 105.6,87.67 103.44,86.36 C101.28,85.05 96.49,82.7 95.65,82.32 C94.81,81.94 93.16,80.72 93.44,79.69 C93.72,78.66 94.14,78.38 96.02,78.56 C97.9,78.75 103.15,78.75 105.59,76.87 C108.03,74.99 109.53,72.37 109.25,70.86 C108.97,69.36 106.25,68.14 106.25,68.14 C106.25,68.14 92.17,61.66 91.05,61.19 C89.92,60.72 87.21,59.31 87.3,58.09 C87.39,56.78 96.12,57.71 96.97,52.36 C97.82,47.01 95.37,47.01 93.4,45.88 C91.43,44.75 85.7,43.06 85.7,43.06 C85.7,43.06 81.01,40.06 80.16,39.49 C79.32,38.93 77.91,37.99 78,37.24 C78.09,36.49 82.86,37.97 87.01,36.68 C90.01,35.74 90.39,33.72 89.78,31.94 C89.48,31.07 84.1,28.61 84.1,28.61 L55.31,24.9 C55.31,24.9 36.26,31.28 35.6,31.56 C34.94,31.84 34.57,33.06 35.6,34.38 C36.63,35.69 38.32,37.66 41.98,37.57 C45.64,37.48 47.99,35.88 48.64,36.91 C49.3,37.94 47.68,39.55 46.58,40.19 C43.3,42.11 40.48,43.76 40.48,43.76 C40.48,43.76 29.87,48.26 29.31,50.99 C28.75,53.72 29.87,55.06 31.56,56.25 C32.97,57.24 35.64,57.61 37.38,57.56 C38.6,57.53 39.37,57.19 39.68,58.31 C40.1,59.86 37.47,61.22 35.03,62.06 C32.59,62.9 27.8,65.06 27.8,65.06 C27.8,65.06 19.92,66.94 19.45,67.78 C18.98,68.62 18.14,72.75 21.42,75.66 C24.7,78.57 30.71,79.32 30.71,79.32 C30.71,79.32 29.96,81.67 28.46,82.98 C26.97,84.31 24.43,86.19 21.15,87.5 Z" fill="#027F1C"/>
  <path d="M62.44,4.35 C64.79,4.35 64.97,8.39 69.57,14.02 C74.55,20.12 80.2,25.41 82.5,27.25 C85.01,29.27 88.53,30.7 88.69,31.12 C88.85,31.54 85.05,32.97 79.7,33.26 C74.35,33.54 69.28,31.57 69.28,31.57 C69.28,31.57 73.13,40.11 71.06,42.08 C69.39,43.67 63.55,43.49 59.33,37.29 C55.11,31.09 55.01,29.12 55.01,29.12 C55.01,29.12 48.35,33.16 42.43,33.25 C36.51,33.34 35.58,32.05 35.58,31.56 C35.58,31.07 42.24,28.09 44.87,26.12 C47.5,24.15 53.32,17.7 57,12.42 C59.82,8.39 60.57,4.35 62.44,4.35 Z" fill="#02AB47"/>
  <path d="M57,39.08 C57,39.08 54.56,41.61 50.71,41.9 C46.86,42.19 44.8,41.24 44.8,41.24 C44.8,41.24 40.06,43.16 35.79,45.65 C32.45,47.6 29.38,50.11 29.45,50.53 C29.52,50.95 30.44,52.5 36.63,52.5 C42.82,52.5 43.39,50.92 46.48,51 C50.42,51.09 52.67,58.02 59.43,58.13 C65.06,58.22 64.22,54.09 67.31,53.72 C70.41,53.34 71.82,55.81 76.18,55.93 C88.19,56.26 97.67,50.86 96.31,47.62 C95.86,46.54 92.76,45.03 88.24,43.44 C83.97,41.94 82.37,41.05 82.37,41.05 C82.37,41.05 81.67,42.55 79.51,43.21 C77.49,43.82 73.97,42.46 73.97,42.46 C73.97,42.46 73.97,45.37 70.69,45.93 C66.28,46.68 62.34,44.71 60.55,43.11 C58.76,41.51 57,39.08 57,39.08 Z" fill="#02AB47"/>
  <path d="M75.58,78.68 C72.51,79.89 69.29,87.6 62.72,85.91 C56.15,84.22 55.31,73.33 55.31,73.33 C55.31,73.33 40.14,86.53 35.6,82.34 C31.89,78.91 38.7,73.56 38.7,73.56 C38.7,73.56 31.66,75.77 25.56,73.14 C19.46,70.51 19.34,68.42 19.46,67.79 C19.58,67.16 23.93,65.64 27.53,64.41 C30.49,63.4 33.94,62.44 33.94,62.44 C33.94,62.44 37.48,63.85 36.64,65.63 C35.8,67.41 32.42,68.63 33.73,69.95 C35.04,71.26 38.61,68.82 39.83,67.98 C41.05,67.14 44.52,65.36 46.78,65.26 C51.75,65.03 53.73,68.83 58.42,67.98 C63.11,67.13 66.56,63.38 71.54,62.72 C76.51,62.06 79.61,64.41 84.49,63.85 C89.37,63.29 91.08,61.22 91.08,61.22 C91.08,61.22 96.05,63.1 100.28,64.88 C104.5,66.66 108.07,69.2 108.07,69.2 C108.07,69.2 105.07,72.2 99.72,72.86 C94.37,73.52 91.55,70.8 90.52,70.23 C89.49,69.66 86.3,66.95 85.45,67.98 C84.61,69.01 88.92,71.45 90.8,72.86 C92.68,74.27 96.39,77.29 90.89,80.27 C88.12,81.77 84.6,81.35 82.72,80.93 C77.55,79.78 77.66,77.87 75.58,78.68 Z" fill="#02AB47"/>
  <path d="M75.87,83.94 C75.87,83.94 70.33,90.7 66.3,92.76 C62.27,94.82 58.51,94.87 58.51,94.87 C58.51,94.87 56.4,97.03 56.82,100.13 C57.12,102.35 59.73,104.49 65.45,104.12 C71.17,103.75 72.58,102.43 72.77,100.74 C72.96,99.05 71.78,97.46 71.41,96.7 C71.03,95.95 69.49,94.17 70.52,93.51 C71.55,92.85 72.58,93.89 73.9,95.86 C75.21,97.83 81.31,108.34 89.29,104.96 C97.18,101.62 87.51,94.07 89.48,92.85 C91.45,91.63 96.43,95.95 104.12,95.48 C112.48,94.97 114.35,90.77 114.35,89.52 C114.35,89.05 110.92,89.05 108.06,88.39 C105.89,87.89 102.76,85.95 102.76,85.95 C102.76,85.95 95.86,88.81 89.39,87.97 C82.92,87.13 75.87,83.94 75.87,83.94 Z" fill="#02AB47"/>
  <path d="M50.81,81.4 C50.81,81.4 51.19,87.78 52.41,90.03 C53.63,92.28 56.35,94.53 56.35,94.53 C56.35,94.53 55.74,97.49 52.69,99.79 C48.7,102.8 41.52,104.95 37.3,103.83 C33.08,102.7 34.02,99.79 34.39,98.67 C34.77,97.54 38.89,92.94 39.93,91.44 C40.96,89.94 42.28,87.97 41.06,87.69 C39.84,87.41 37.87,90.41 36.46,92.1 C35.05,93.79 31.2,97.45 23.98,96.42 C16.76,95.39 11.2,91.3 11.86,90.46 C12.52,89.62 17.59,87.88 20.4,87.03 C23.22,86.19 28.47,82.99 28.47,82.99 C28.47,82.99 28,85.71 30.44,86.65 C33.5,87.83 37.76,87.49 43.2,85.34 C47.32,83.71 50.81,81.4 50.81,81.4 Z" fill="#02AB47"/>
  <path d="M24.08,88.84 C22.35,90.33 19.86,90.95 20.91,92.5 C21.97,94.05 24.01,92.29 25.7,90.95 C27.39,89.61 29.29,88.28 28.3,87.08 C27.32,85.88 25.63,87.5 24.08,88.84 Z" fill="#028B2B"/>
  <path d="M43.44,95.04 C45.28,96.49 46.54,92.44 47.17,90.89 C47.8,89.34 49.25,87.08 48.01,86.31 C46.32,85.25 45.62,87.37 44.63,89.83 C43.64,92.29 42.1,93.98 43.44,95.04 Z" fill="#028B2B"/>
  <path d="M49.14,67.44 C48.13,66.68 47.38,67.37 45.97,69.41 C44.56,71.45 43.72,72.93 44.84,73.7 C45.97,74.47 47.87,71.73 48.57,70.67 C49.27,69.61 49.99,68.08 49.14,67.44 Z" fill="#028B2B"/>
  <path d="M63.17,69.23 C61.36,69.65 62.31,71.45 62.68,73.17 C63.1,75.14 63.74,78.24 64.02,79.08 C64.37,80.14 64.79,81.68 66.13,81.33 C67.47,80.98 66.99,79.04 66.83,78.16 C66.48,76.12 65.7,72.95 65.49,71.97 C65.28,70.99 65,68.8 63.17,69.23 Z" fill="#028B2B"/>
  <path d="M77.79,88.7 C76.67,89.76 78.07,91.23 79.69,93.06 C81.31,94.89 82.36,96.86 83.7,96.02 C85.04,95.18 83.56,93.35 82.22,91.87 C80.89,90.39 79.13,87.43 77.79,88.7 Z" fill="#028B2B"/>
  <path d="M75.84,67.35 C74.64,68.41 76.19,69.88 77.11,71.29 C78.03,72.7 79.93,74.81 80.49,75.37 C81.05,75.93 81.92,77.08 82.88,76.5 C84.1,75.76 82.95,74.25 82.46,73.68 C81.97,73.11 80.35,70.86 79.43,69.88 C78.51,68.9 77.34,66.02 75.84,67.35 Z" fill="#028B2B"/>
  <path d="M76.1,45.62 C75.12,47 77.16,48.44 79.13,49.56 C81.1,50.69 83.17,51.92 83.92,50.69 C84.76,49.28 82.72,48.16 81.03,47.17 C79.34,46.18 77.16,44.14 76.1,45.62 Z" fill="#028B2B"/>
  <path d="M59.63,47.73 C57.52,47.59 57.8,49.42 57.87,51.39 C57.94,53.36 58.29,54.49 59.63,54.49 C60.97,54.49 60.97,52.45 60.97,51.39 C60.97,50.34 60.97,47.82 59.63,47.73 Z" fill="#028B2B"/>
  <path d="M48.6,47.94 C49.54,49.46 51.7,47.31 52.61,46.53 C53.53,45.76 54.86,44.63 53.95,43.5 C53.03,42.37 51.13,43.99 50.22,44.84 C49.31,45.69 47.69,46.47 48.6,47.94 Z" fill="#028B2B"/>
  <path d="M62.06,26.9 C62.63,30.86 63.42,32.53 64.93,32.03 C66.28,31.59 65.35,29.14 65.03,26.87 C64.72,24.59 64.67,22.61 63,22.86 C61.13,23.14 61.72,24.52 62.06,26.9 Z" fill="#028B2B"/>
  <path d="M70.05,25.5 C71.31,27.43 72.6,28.51 73.92,27.67 C74.93,27.03 73.53,25.18 72.68,24.06 C72.1,23.3 70.44,20.13 68.89,21.49 C67.84,22.41 68.74,23.49 70.05,25.5 Z" fill="#028B2B"/>
  <path d="M56.6,20.99 C57.33,21.67 56.6,23.03 55.54,24.16 C54.48,25.29 53.01,27.33 51.88,26.27 C50.75,25.21 52.72,23.45 53.43,22.61 C54.14,21.76 55.48,19.93 56.6,20.99 Z" fill="#028B2B"/>
</svg>
